X:1
T:"Take Up Your Cross," the Savior Said
T:Text: Charles W. Everest (1814-1877), alt. Tune: Southern Harmony, 1835
T:LM DISTRESS www.hymnary.org/text/take_up_thy_cross_the_savior_said_if_tho
T:"Take Up Your Cross," the Savior Said
T:This hymn is in the public domain.  You may freely use this score for personal and congregational worship.  If you reproduce the score, please credit Hymnary.org as the source. 
T:This hymn is in the public domain.  You may freely use this score for personal and congregational worship.  If you reproduce the score, please credit Hymnary.org as the source. 
Z:This hymn is in the public domain.  You may freely use this score for personal and congregational worship.  If you reproduce the score, please credit Hymnary.org as the source.
%%score ( 1 2 ) ( 3 4 )
L:1/8
M:3/2
K:F
V:1 treble nm="Piano" snm="Pno."
V:2 treble 
V:3 bass nm="Piano" snm="Pno."
V:4 bass 
V:1
 D4 | [DF]2 [DG]2 [DA]4 [DG]4 | [CF]2 DC [A,D]4 [CG]4 | [FA]2 [Fc]2 [Fd]4 [Gd]4 | %4
w: 3~Take|up your cross, heed|not the _ shame, nor|let your foo- lish|
w: 1~“Take|up your cross,” the|Sa- vior _ said, “if|you would my dis-|
w: 2~Take|up your cross, let|not its _ weight fill|your weak spi- rit|
 [Ec]2 [FA]2 [EG]4 F4 | [FA]2 [Fc]2 [Fd]4 [Fc]4 | [FA]2 [DF]2 [Ec]4 D4 | [DF]2 [DG]2 [DA]4 [DG]4 | %8
w: pride re- bel; your|Lord for you the|cross en- dured, and|fought the powers of|
w: ci- ple be; de-|ny your- self, the|world for- sake, and|hum- bly fol- low|
w: with a- larm; his|strength shall bear your|spi- rit up, and|nerve your heart, and|
 [CF]2 DC [A,D]4 |] %9
w: death and _ hell.|
w: af- ter _ me.”|
w: brace your _ arm.|
V:2
 D4 | x12 | x2 A,2 x8 | x12 | x8 F4 | x12 | x8 D4 | x12 | x2 A,2 x4 |] %9
V:3
 D,4 | [D,A,]2 [E,A,]2 [F,A,]4 [G,B,]4 | A,2 [A,,G,]2 [D,F,]4 [E,G,]4 | [F,C]2 [A,C]2 B,4 [G,B,]4 | %4
 [A,C]2 [F,C]2 [C,C]4 F,4 | [F,C]2 [A,,C]2 [B,,B,]4 [F,,A,]4 | [A,,C]2 [D,B,]2 [C,G,]4 [D,F,]4 | %7
 [D,A,]2 [E,A,]2 [F,A,]4 [G,B,]4 | A,2 [A,,G,]2 [D,F,]4 |] %9
V:4
 D,4 | x12 | A,2 x10 | x4 B,4 x4 | x8 F,4 | x12 | x12 | x12 | A,2 x6 |] %9

